Yaru++/mimetypes/48/text-x-c.svg

<svg height="48" viewBox="0 0 12.699375 12.699375" width="48" xmlns="http://www.w3.org/2000/svg" xmlns:xlink="http://www.w3.org/1999/xlink"><linearGradient id="a" gradientUnits="userSpaceOnUse" x1="6.350072" x2="6.350072" y1=".396856" y2="12.03795"><stop offset="0" stop-color="#fff"/><stop offset=".125" stop-color="#fff" stop-opacity=".098039"/><stop offset=".92500001" stop-color="#fff" stop-opacity=".098039"/><stop offset="1" stop-color="#fff" stop-opacity=".498039"/></linearGradient><linearGradient id="b" gradientTransform="matrix(0 -.02997086 .02997 0 -3.039509 13.625372)" gradientUnits="userSpaceOnUse" x1="459.03448" x2="35.310345" y1="419.23337" y2="207.36522"><stop offset="0" stop-color="#f2f2f2"/><stop offset="1" stop-color="#f9f9f9"/></linearGradient><path d="m4.1621981.39685644c-.5881133-.0089584-1.0513178.0135407-1.4323995.0775109-.3810845.0639689-.6929229.1839555-.9213476.4118407-.2284221.22788556-.3489841.53958346-.4123566.92082876-.0633725.3812456-.0757438.8453924-.07286 1.4349839v3.2399529 3.2415032c-.00286.5886852.00955 1.0525972.07286 1.4334332.063373.381246.1839345.692944.4123566.920829.2284247.227885.5402631.347873.9213476.411841.3810844.06397.8442174.07751 1.4323995.07751h4.3757443c.5881821 0 1.0510744-.01352 1.4313677-.07751.3802939-.064.6911799-.18439.9187599-.412357.227584-.227967.347434-.539443.411325-.920313.06389-.380868.07751-.844073.07751-1.4334332v-3.2415032-3.1748437l-2.8389626-2.84361416z" opacity=".1"/><path d="m4.1623595.39685644c-2.334616 0-2.5858176.2397933-2.5743749 2.57913196v3.2414149 3.2414145c-.011456 2.3393392.2397589 2.5791322 2.5743749 2.5791322h4.3757787c2.3346158 0 2.5743748-.239767 2.5743748-2.5791322v-3.2414145l-.000177-3.1748438-2.6457032-2.64570306z" fill="none" opacity=".2" stroke="#000" stroke-width=".529141"/><path d="m4.1623595.39685644c-2.334616 0-2.5858176.2397933-2.5743749 2.57913196v3.2414149 3.2414145c-.011456 2.3393392.2397589 2.5791322 2.5743749 2.5791322h4.3757787c2.3346158 0 2.5743748-.239767 2.5743748-2.5791322v-3.2414145l-.000177-3.1748438-2.6457032-2.64570306z" fill="url(#b)"/><path d="m8.7062806 8.4559195q-.027216.5909863-.3188258 1.0459103-.291612.451021-.8203981.6998572-.5248996.248841-1.2014323.248841-1.1158968 0-1.7574401-.7270732-.6415433-.727092-.6415433-2.0529361v-.2799551q0-.8320657.2877228-1.4541657.2916094-.6259866.8359496-.9642493.5443376-.3421672 1.2597569-.3421672 1.0303558 0 1.6563424.5443455.6259972.5404616.7115328 1.4930443h-1.3608492q-.0155567-.5171132-.2605039-.7426409-.2449524-.2255091-.7465221-.2255091-.5093455 0-.7465222.3810447-.2371767.3810474-.2488416 1.2169917v.4004748q0 .905939.2255118 1.2947484.2293983.38881.7854061.38881.4704642 0 .7193031-.22163.2488416-.221607.2643931-.7037413z" fill="#2f5fdd"/><path d="m1.5878047 6.2174033v3.2415025c-.011456 2.3393382.2397774 2.5790442 2.5743934 2.5790442h4.3757443c2.3346166 0 2.5743936-.239679 2.5743936-2.5790442v-3.2415025z" fill="#fff" opacity=".2"/><path d="m6.3500703.39685644v11.64109356h2.1878721c2.3346166 0 2.5743936-.239679 2.5743936-2.5790442v-3.2415025-3.1748438l-2.6457032-2.64570306z" fill="#fff" opacity=".1"/><path d="m4.1621981.39685644c-2.334616 0-2.5858361.2397052-2.5743934 2.57904386v3.241503 3.2415025c-.011456 2.3393382.2397774 2.5790442 2.5743934 2.5790442h4.3757443c2.3346166 0 2.5743936-.239679 2.5743936-2.5790442v-3.2415025-3.1748438h-.26457v3.1748438 3.2415025c0 .5803222-.01624 1.0240722-.07027 1.3461042-.05402.322035-.139871.509123-.264055.633524-.124184.124388-.310701.2105-.631971.264571-.321273.05406-.7643965.07028-1.3435224.07028h-4.3757495c-.5791259 0-1.0227997-.01619-1.3450728-.07028-.3222705-.054102-.5102953-.14009-.6350719-.264571-.124774-.124488-.2105874-.311351-.2640518-.633005-.053467-.321654-.0684681-.765512-.0656266-1.3455892v-.000529-3.2420075-3.2420198-.0005291c-.00283-.5800778.01217-1.0239334.065627-1.3455882.053467-.3216548.1392778-.5085248.2640518-.63300506.124774-.1244804.31332-.2104736.6355904-.2645703.3222705-.0540719.7654284-.0702641 1.3445543-.0702641h4.3044347v-.2645703z" fill="url(#a)" opacity=".4"/><path d="m11.112336 3.3071299v-.2645704l-2.6457032-2.64570306h-.2645703v1.11359066.042668.022917c0 1.5059289.201592 1.7381397 1.7109762 1.7307589z" opacity=".2"/><path d="m11.112336 3.0422209-2.6457032-2.64536496v.98127586.042668.022917c0 1.5059289.069402 1.6058846 1.5787862 1.5985039z" fill="#faf8f6"/></svg>

<?xml version="1.0" encoding="UTF-8" standalone="no"?>
<svg
   xmlns:dc="http://purl.org/dc/elements/1.1/"
   xmlns:cc="http://creativecommons.org/ns#"
   xmlns:rdf="http://www.w3.org/1999/02/22-rdf-syntax-ns#"
   xmlns:svg="http://www.w3.org/2000/svg"
   xmlns="http://www.w3.org/2000/svg"
   xmlns:xlink="http://www.w3.org/1999/xlink"
   xmlns:sodipodi="http://sodipodi.sourceforge.net/DTD/sodipodi-0.dtd"
   xmlns:inkscape="http://www.inkscape.org/namespaces/inkscape"
   height="48"
   viewBox="0 0 12.699375 12.699375"
   width="48"
   version="1.1"
   id="svg33"
   sodipodi:docname="text-x-c.svg"
   inkscape:version="0.92.5 (2060ec1f9f, 2020-04-08)">
  <metadata
     id="metadata39">
    <rdf:RDF>
      <cc:Work
         rdf:about="">
        <dc:format>image/svg+xml</dc:format>
        <dc:type
           rdf:resource="http://purl.org/dc/dcmitype/StillImage" />
      </cc:Work>
    </rdf:RDF>
  </metadata>
  <defs
     id="defs37">
    <linearGradient
       gradientTransform="matrix(0.26457031,0,0,0.26457031,-84.662115,-16.006503)"
       inkscape:collect="always"
       xlink:href="#linearGradient927"
       id="linearGradient1004"
       x1="344"
       y1="62"
       x2="344"
       y2="106"
       gradientUnits="userSpaceOnUse" />
    <linearGradient
       inkscape:collect="always"
       id="linearGradient927">
      <stop
         style="stop-color:#ffffff;stop-opacity:1;"
         offset="0"
         id="stop923" />
      <stop
         id="stop933"
         offset="0.125"
         style="stop-color:#ffffff;stop-opacity:0.09803922" />
      <stop
         id="stop931"
         offset="0.92500001"
         style="stop-color:#ffffff;stop-opacity:0.09803922" />
      <stop
         style="stop-color:#ffffff;stop-opacity:0.49803922"
         offset="1"
         id="stop925" />
    </linearGradient>
    <linearGradient
       inkscape:collect="always"
       xlink:href="#linearGradient4338"
       id="linearGradient1024"
       gradientUnits="userSpaceOnUse"
       gradientTransform="matrix(0,-0.02997086,0.02997,0,-3.0395089,13.625372)"
       x1="459.03448"
       y1="419.23337"
       x2="35.310345"
       y2="207.36522" />
    <linearGradient
       inkscape:collect="always"
       id="linearGradient4338">
      <stop
         style="stop-color:#f2f2f2;stop-opacity:1"
         offset="0"
         id="stop4340" />
      <stop
         style="stop-color:#f9f9f9;stop-opacity:1"
         offset="1"
         id="stop4342" />
    </linearGradient>
  </defs>
  <sodipodi:namedview
     pagecolor="#ffffff"
     bordercolor="#666666"
     borderopacity="1"
     objecttolerance="10"
     gridtolerance="10"
     guidetolerance="10"
     inkscape:pageopacity="0"
     inkscape:pageshadow="2"
     inkscape:window-width="834"
     inkscape:window-height="480"
     id="namedview35"
     showgrid="false"
     inkscape:zoom="4.9166667"
     inkscape:cx="24"
     inkscape:cy="24"
     inkscape:window-x="0"
     inkscape:window-y="28"
     inkscape:window-maximized="0"
     inkscape:current-layer="svg33" />
  <linearGradient
     id="a"
     gradientUnits="userSpaceOnUse"
     x1="344"
     x2="344"
     y1="62"
     y2="106">
    <stop
       offset="0"
       stop-color="#fff"
       id="stop2" />
    <stop
       offset=".125"
       stop-color="#fff"
       stop-opacity=".098039"
       id="stop4" />
    <stop
       offset=".92500001"
       stop-color="#fff"
       stop-opacity=".098039"
       id="stop6" />
    <stop
       offset="1"
       stop-color="#fff"
       stop-opacity=".498039"
       id="stop8" />
  </linearGradient>
  <clipPath
     id="b">
    <path
       d="m335.73108 62c-8.82418 0-9.77365.90635-9.7304 9.74838v12.25162 12.25162c-.0433 8.84203.90622 9.74838 9.7304 9.74838h16.53919c8.82418 0 9.7304-.90625 9.7304-9.74838v-12.25162-12.25162c0-8.84213-.90622-9.74838-9.7304-9.74838z"
       id="path11" />
  </clipPath>
  <linearGradient
     id="c"
     gradientTransform="matrix(0 -.02997086 .02997 0 -3.039509 13.625372)"
     gradientUnits="userSpaceOnUse"
     x1="459.03448"
     x2="35.310345"
     y1="419.23337"
     y2="207.36522">
    <stop
       offset="0"
       stop-color="#f2f2f2"
       id="stop14" />
    <stop
       offset="1"
       stop-color="#f9f9f9"
       id="stop16" />
  </linearGradient>
  <path
     style="color:#000000;font-style:normal;font-variant:normal;font-weight:normal;font-stretch:normal;font-size:medium;line-height:normal;font-family:sans-serif;font-variant-ligatures:normal;font-variant-position:normal;font-variant-caps:normal;font-variant-numeric:normal;font-variant-alternates:normal;font-feature-settings:normal;text-indent:0;text-align:start;text-decoration:none;text-decoration-line:none;text-decoration-style:solid;text-decoration-color:#000000;letter-spacing:normal;word-spacing:normal;text-transform:none;writing-mode:lr-tb;direction:ltr;text-orientation:mixed;dominant-baseline:auto;baseline-shift:baseline;text-anchor:start;white-space:normal;shape-padding:0;clip-rule:nonzero;display:inline;overflow:visible;visibility:visible;opacity:0.1;isolation:auto;mix-blend-mode:normal;color-interpolation:sRGB;color-interpolation-filters:linearRGB;solid-color:#000000;solid-opacity:1;vector-effect:none;fill:#000000;fill-opacity:1;fill-rule:nonzero;stroke:none;stroke-width:0.52914065;stroke-linecap:butt;stroke-linejoin:miter;stroke-miterlimit:4;stroke-dasharray:none;stroke-dashoffset:0;stroke-opacity:1;marker:none;color-rendering:auto;image-rendering:auto;shape-rendering:auto;text-rendering:auto;enable-background:accumulate"
     d="M 4.1621981,0.39685644 C 3.5740848,0.38789804 3.1108803,0.41039714 2.7297986,0.47436734 2.3487141,0.53833624 2.0368757,0.65832284 1.808451,0.88620804 1.5800289,1.1140936 1.4594669,1.4257915 1.3960944,1.8070368 1.3327219,2.1882824 1.3203506,2.6524292 1.3232344,3.2420207 v 3.2399529 3.2415032 c -0.00286,0.5886852 0.00955,1.0525972 0.07286,1.4334332 0.063373,0.381246 0.1839345,0.692944 0.4123566,0.920829 0.2284247,0.227885 0.5402631,0.347873 0.9213476,0.411841 0.3810844,0.06397 0.8442174,0.07751 1.4323995,0.07751 h 4.3757443 c 0.5881821,0 1.0510744,-0.01352 1.4313677,-0.07751 0.3802939,-0.064 0.6911799,-0.18439 0.9187599,-0.412357 0.227584,-0.227967 0.347434,-0.539443 0.411325,-0.920313 0.06389,-0.380868 0.07751,-0.844073 0.07751,-1.4334332 V 6.4819736 3.3071299 L 8.5379424,0.46351574 Z"
     id="path1020"
     inkscape:connector-curvature="0"
     sodipodi:nodetypes="sccsccccccsscccscccs" />
  <path
     style="color:#000000;display:inline;overflow:visible;visibility:visible;opacity:0.2;fill:none;fill-opacity:1;fill-rule:nonzero;stroke:#000000;stroke-width:0.52914065;stroke-miterlimit:4;stroke-dasharray:none;stroke-opacity:1;marker:none;enable-background:accumulate"
     d="m 4.1623595,0.39685644 c -2.334616,0 -2.5858176,0.2397933 -2.5743749,2.57913196 V 6.2174033 9.4588178 C 1.5765286,11.798157 1.8277435,12.03795 4.1623595,12.03795 h 4.3757787 c 2.3346158,0 2.5743748,-0.239767 2.5743748,-2.5791322 V 6.2174033 L 11.112336,3.0425595 8.4666328,0.39685644 Z"
     id="path958"
     inkscape:connector-curvature="0"
     sodipodi:nodetypes="scccssscccs" />
  <path
     style="color:#000000;display:inline;overflow:visible;visibility:visible;fill:url(#linearGradient1024);fill-opacity:1;fill-rule:nonzero;stroke:none;stroke-width:0.26457033;marker:none;enable-background:accumulate"
     d="m 4.1623595,0.39685644 c -2.334616,0 -2.5858176,0.2397933 -2.5743749,2.57913196 V 6.2174033 9.4588178 C 1.5765286,11.798157 1.8277435,12.03795 4.1623595,12.03795 h 4.3757787 c 2.3346158,0 2.5743748,-0.239767 2.5743748,-2.5791322 V 6.2174033 L 11.112336,3.0425595 8.4666328,0.39685644 Z"
     id="path964"
     inkscape:connector-curvature="0"
     sodipodi:nodetypes="scccssscccs" />
  <path
     d="m 8.7062806,8.4559195 q -0.027216,0.5909863 -0.3188258,1.0459103 -0.291612,0.451021 -0.8203981,0.6998572 -0.5248996,0.248841 -1.2014323,0.248841 -1.1158968,0 -1.7574401,-0.7270732 Q 3.966641,8.9963628 3.966641,7.6705187 V 7.3905636 q 0,-0.8320657 0.2877228,-1.4541657 Q 4.5459732,5.3104113 5.0903134,4.9721486 5.634651,4.6299814 6.3500703,4.6299814 q 1.0303558,0 1.6563424,0.5443455 0.6259972,0.5404616 0.7115328,1.4930443 H 7.3570963 Q 7.3415396,6.150258 7.0965924,5.9247303 6.85164,5.6992212 6.3500703,5.6992212 q -0.5093455,0 -0.7465222,0.3810447 -0.2371767,0.3810474 -0.2488416,1.2169917 v 0.4004748 q 0,0.905939 0.2255118,1.2947484 0.2293983,0.38881 0.7854061,0.38881 0.4704642,0 0.7193031,-0.22163 0.2488416,-0.221607 0.2643931,-0.7037413 z"
     style="font-style:normal;font-variant:normal;font-weight:900;font-stretch:normal;font-size:medium;line-height:125%;font-family:Roboto;-inkscape-font-specification:'Roboto Heavy';letter-spacing:0px;word-spacing:0px;display:inline;fill:#2f5fdd;fill-opacity:1;stroke:none;stroke-width:0.2645703px;stroke-linecap:butt;stroke-linejoin:miter;stroke-opacity:1;enable-background:new"
     id="path911"
     inkscape:connector-curvature="0" />
  <path
     style="color:#000000;display:inline;overflow:visible;visibility:visible;opacity:0.2;fill:#ffffff;fill-opacity:1;fill-rule:nonzero;stroke:none;stroke-width:0.26457033;marker:none;enable-background:accumulate"
     d="M 1.5878047,6.2174033 V 9.4589058 C 1.5763487,11.798244 1.8275821,12.03795 4.1621981,12.03795 h 4.3757443 c 2.3346166,0 2.5743936,-0.239679 2.5743936,-2.5790442 V 6.2174033 Z"
     id="path1006"
     inkscape:connector-curvature="0" />
  <path
     style="color:#000000;display:inline;overflow:visible;visibility:visible;opacity:0.1;fill:#ffffff;fill-opacity:1;fill-rule:nonzero;stroke:none;stroke-width:0.26457033;marker:none;enable-background:accumulate"
     d="M 6.3500703,0.39685644 V 12.03795 h 2.1878721 c 2.3346166,0 2.5743936,-0.239679 2.5743936,-2.5790442 V 6.2174033 3.0425595 L 8.4666328,0.39685644 Z"
     id="path1013"
     inkscape:connector-curvature="0"
     sodipodi:nodetypes="ccsscccc" />
  <path
     style="color:#000000;font-style:normal;font-variant:normal;font-weight:normal;font-stretch:normal;font-size:medium;line-height:normal;font-family:sans-serif;font-variant-ligatures:normal;font-variant-position:normal;font-variant-caps:normal;font-variant-numeric:normal;font-variant-alternates:normal;font-feature-settings:normal;text-indent:0;text-align:start;text-decoration:none;text-decoration-line:none;text-decoration-style:solid;text-decoration-color:#000000;letter-spacing:normal;word-spacing:normal;text-transform:none;writing-mode:lr-tb;direction:ltr;text-orientation:mixed;dominant-baseline:auto;baseline-shift:baseline;text-anchor:start;white-space:normal;shape-padding:0;clip-rule:nonzero;display:inline;overflow:visible;visibility:visible;opacity:0.4;isolation:auto;mix-blend-mode:normal;color-interpolation:sRGB;color-interpolation-filters:linearRGB;solid-color:#000000;solid-opacity:1;vector-effect:none;fill:url(#linearGradient1004);fill-opacity:1;fill-rule:nonzero;stroke:none;stroke-width:0.52914065;stroke-linecap:butt;stroke-linejoin:miter;stroke-miterlimit:4;stroke-dasharray:none;stroke-dashoffset:0;stroke-opacity:1;marker:none;color-rendering:auto;image-rendering:auto;shape-rendering:auto;text-rendering:auto;enable-background:accumulate"
     clip-path="none"
     d="m 4.1621981,0.39685644 c -2.334616,0 -2.5858361,0.2397052 -2.5743934,2.57904386 v 3.241503 3.2415025 C 1.5763487,11.798244 1.8275821,12.03795 4.1621981,12.03795 h 4.3757443 c 2.3346166,0 2.5743936,-0.239679 2.5743936,-2.5790442 V 6.2174033 3.0425595 h -0.26457 v 3.1748438 3.2415025 c 0,0.5803222 -0.01624,1.0240722 -0.07027,1.3461042 -0.05402,0.322035 -0.139871,0.509123 -0.264055,0.633524 -0.124184,0.124388 -0.310701,0.2105 -0.631971,0.264571 -0.321273,0.05406 -0.7643965,0.07028 -1.3435224,0.07028 H 4.1621981 c -0.5791259,0 -1.0227997,-0.01619 -1.3450728,-0.07028 C 2.4948548,11.649003 2.30683,11.563015 2.1820534,11.438534 2.0572794,11.314046 1.971466,11.127183 1.9180016,10.805529 1.8645346,10.483875 1.8495335,10.040017 1.852375,9.4599398 V 9.4594108 6.2174033 2.9753835 2.9748544 c -0.00283,-0.5800778 0.01217,-1.0239334 0.065627,-1.3455882 0.053467,-0.3216548 0.1392778,-0.5085248 0.2640518,-0.63300506 0.124774,-0.1244804 0.31332,-0.2104736 0.6355904,-0.2645703 0.3222705,-0.0540719 0.7654284,-0.0702641 1.3445543,-0.0702641 h 4.3044347 v -0.2645703 z"
     id="path990"
     inkscape:connector-curvature="0" />
  <path
     inkscape:connector-curvature="0"
     style="color:#000000;display:inline;overflow:visible;visibility:visible;opacity:0.2;fill:#000000;fill-opacity:1;fill-rule:nonzero;stroke:none;stroke-width:0.06614863;marker:none;enable-background:accumulate"
     d="M 11.112336,3.3071299 V 3.0425595 L 8.4666328,0.39685644 H 8.2020625 v 1.11359066 0.042668 0.022917 c 0,1.5059289 0.201592,1.7381397 1.7109762,1.7307589 z"
     id="rect4158-0-3-62-2"
     sodipodi:nodetypes="ccccccscc" />
  <path
     inkscape:connector-curvature="0"
     style="color:#000000;display:inline;overflow:visible;visibility:visible;fill:#faf8f6;fill-opacity:1;fill-rule:nonzero;stroke:none;stroke-width:0.06614863;marker:none;enable-background:accumulate"
     d="M 11.112336,3.0422209 8.4666328,0.39685594 v 0.98127586 0.042668 0.022917 c 0,1.5059289 0.069402,1.6058846 1.5787862,1.5985039 z"
     id="rect4158-0-3-62"
     sodipodi:nodetypes="ccccscc" />
</svg>
